packages/icon/src/svg/building.icon.svg

<svg width="24" height="24" viewBox="0 0 24 24" fill="none" xmlns="http://www.w3.org/2000/svg">
<path fill-rule="evenodd" clip-rule="evenodd" d="M11 21V18.5C11 18.2239 11.2239 18 11.5 18H12.5C12.7761 18 13 18.2239 13 18.5V21C13 21.5523 13.4477 22 14 22H20C20.553 22 21 21.552 21 21V3C21 2.448 20.553 2 20 2H4C3.44702 2 3 2.448 3 3V21C3 21.552 3.44702 22 4 22H10C10.5523 22 11 21.5523 11 21ZM9.5 16C9.22388 16 9 16.2239 9 16.5V20H5V4H19V20H15V16.5C15 16.2239 14.7761 16 14.5 16H9.5ZM7.5 6.02502H10.5C10.7761 6.02502 11 6.2489 11 6.52502V8.52502C11 8.80115 10.7761 9.02502 10.5 9.02502H7.5C7.22388 9.02502 7 8.80115 7 8.52502V6.52502C7 6.2489 7.22388 6.02502 7.5 6.02502ZM16.5 6.02502H13.5C13.2239 6.02502 13 6.2489 13 6.52502V8.52502C13 8.80115 13.2239 9.02502 13.5 9.02502H16.5C16.7761 9.02502 17 8.80115 17 8.52502V6.52502C17 6.2489 16.7761 6.02502 16.5 6.02502ZM13.5 11.025H16.5C16.7761 11.025 17 11.2489 17 11.525V13.525C17 13.8011 16.7761 14.025 16.5 14.025H13.5C13.2239 14.025 13 13.8011 13 13.525V11.525C13 11.2489 13.2239 11.025 13.5 11.025ZM10.5 11.025H7.5C7.22388 11.025 7 11.2489 7 11.525V13.525C7 13.8011 7.22388 14.025 7.5 14.025H10.5C10.7761 14.025 11 13.8011 11 13.525V11.525C11 11.2489 10.7761 11.025 10.5 11.025Z" fill="white"/>
</svg>

<svg aria-label="building icon" viewBox="0 0 24 24"><path fill-rule="evenodd" clip-rule="evenodd" d="M11 21v-2.5a.5.5 0 01.5-.5h1a.5.5 0 01.5.5V21a1 1 0 001 1h6a1 1 0 001-1V3a1 1 0 00-1-1H4a1 1 0 00-1 1v18a1 1 0 001 1h6a1 1 0 001-1zm-1.5-5a.5.5 0 00-.5.5V20H5V4h14v16h-4v-3.5a.5.5 0 00-.5-.5h-5zm-2-9.975h3a.5.5 0 01.5.5v2a.5.5 0 01-.5.5h-3a.5.5 0 01-.5-.5v-2a.5.5 0 01.5-.5zm9 0h-3a.5.5 0 00-.5.5v2a.5.5 0 00.5.5h3a.5.5 0 00.5-.5v-2a.5.5 0 00-.5-.5zm-3 5h3a.5.5 0 01.5.5v2a.5.5 0 01-.5.5h-3a.5.5 0 01-.5-.5v-2a.5.5 0 01.5-.5zm-3 0h-3a.5.5 0 00-.5.5v2a.5.5 0 00.5.5h3a.5.5 0 00.5-.5v-2a.5.5 0 00-.5-.5z"/></svg>
